logos/adobe-animate.svg

<?xml version="1.0" encoding="UTF-8"?>
<svg width="256px" height="250px" viewBox="0 0 256 250" version="1.1" xmlns="http://www.w3.org/2000/svg" preserveAspectRatio="xMidYMid">
    <title>Adobe Animate</title>
    <g>
        <rect fill="#00005B" x="0" y="0" width="256" height="249.6" rx="42.5"></rect>
        <path d="M103.512693,149.333333 L63.8423787,149.333333 L55.6954987,174.365536 C55.4811875,175.256248 54.6976393,175.884428 53.7950038,175.912483 L33.541856,175.911136 C32.3960213,175.911136 31.9953102,175.281447 32.3397227,174.022069 L66.829184,75.6013013 L67.2872871,74.2491113 C67.4781086,73.6759214 67.6689161,73.0671313 67.8599147,72.335072 C68.309152,70.0438162 68.5391681,67.7149853 68.546848,65.3801173 C68.4996115,65.0490306 68.6109664,64.7150205 68.8474309,64.4785162 C69.0838953,64.2420119 69.4178866,64.1306007 69.7489813,64.1777813 L97.0541867,64.1777813 C97.8541867,64.1777813 98.3121707,64.464064 98.4281387,65.0366293 L137.268939,174.193664 C137.612171,175.339499 137.268594,175.911982 136.238208,175.911115 L113.912693,175.911115 C113.119499,175.999 112.384359,175.484361 112.195499,174.708981 L103.512693,149.333333 Z M70.0922027,128.151819 L97.2260693,128.151819 L96.8400083,126.874894 L96.8400083,126.874894 L96.218366,124.852684 L96.218366,124.852684 L95.3100815,121.957001 L95.3100815,121.957001 L93.5654686,116.490007 L93.5654686,116.490007 L88.8109653,101.447136 L88.8109653,101.447136 C87.9279299,98.6504823 87.1079044,95.9378175 86.3508889,93.3091416 L85.4726507,90.2132727 L85.4726507,90.2132727 L84.7539307,87.6455547 L84.7539307,87.6455547 L83.8679744,84.4367406 C83.7975893,84.1795685 83.7280654,83.9249536 83.6594027,83.672896 L83.4875307,83.672896 C82.6281619,87.7956218 81.5816367,91.8768271 80.3512761,95.903861 L79.191907,99.6264755 L79.191907,99.6264755 L76.4014705,108.626725 L76.4014705,108.626725 L74.6037149,114.44595 L74.6037149,114.44595 L73.8413176,116.873173 L73.8413176,116.873173 L73.0831118,119.243232 L73.0831118,119.243232 L72.3290973,121.556126 C71.5771786,123.840437 70.8315471,126.039001 70.0922027,128.151819 Z M149.290464,174.276651 L149.290464,110.978389 C149.290464,110.546097 149.289058,110.102449 149.286246,109.647446 L149.273593,108.248372 L149.273593,108.248372 L149.252505,106.781165 L149.252505,106.781165 L149.205056,104.452608 L149.205056,104.452608 L149.147656,102.419912 C149.115704,101.417574 149.078874,100.43625 149.037165,99.4759397 L148.947243,97.5833387 L148.947243,97.5833387 L148.817493,95.2350118 L148.817493,95.2350118 L148.71018,93.515461 L148.71018,93.515461 L148.646317,92.636775 L148.646317,92.636775 L148.604011,92.129472 L148.604011,92.129472 C148.467543,91.7805789 148.534056,91.3849527 148.77536,91.0989973 C149.05876,90.8505423 149.430303,90.7267343 149.806091,90.7555307 L166.948971,90.7555307 C167.540361,90.7361177 168.128235,90.8536662 168.666688,91.0989973 C169.129744,91.3380428 169.449264,91.7855477 169.525013,92.3011307 L170.297931,94.619616 L170.297931,94.619616 C170.614186,95.7561906 170.815544,96.9216427 170.898976,98.0984427 C174.219354,95.1897425 178.067065,92.9452479 182.233376,91.48672 C186.375692,90.0526291 190.730083,89.326928 195.1136,89.3397587 C198.527056,89.3557487 201.916972,89.9062646 205.159957,90.971616 C212.74988,93.398336 218.759377,99.2489087 221.388597,106.771083 C223.105792,111.17968 223.779403,116.876288 223.779403,123.858325 L223.779403,174.27664 C223.779403,175.307104 223.321415,175.822304 222.40544,175.82224 L202.33856,176 C201.865513,176.067862 201.388141,175.908873 201.050248,175.570928 C200.712355,175.232982 200.553441,174.755586 200.621376,174.282549 L200.621376,126.446933 C200.56568,123.243208 199.860293,120.08412 198.547936,117.160992 C197.626902,115.004426 196.107204,113.156936 194.168768,111.837259 C191.977771,110.496195 189.436819,109.838517 186.870325,109.948192 C184.110859,109.908909 181.369913,110.404583 178.798976,111.407819 C176.448507,112.346415 174.293642,113.715028 172.444843,115.443499 L172.444843,174.276661 C172.444843,175.307125 171.986855,175.822325 171.07088,175.822261 L150.836267,175.822261 C150.410573,175.883059 149.981095,175.739906 149.67701,175.435859 C149.372926,175.131813 149.229719,174.702352 149.290464,174.276651 Z" fill="#9999FF"></path>
    </g>
</svg>

<?xml version="1.0" encoding="UTF-8"?>
<svg width="256" height="250" version="1.1" xmlns="http://www.w3.org/2000/svg" preserveAspectRatio="xMidYMid">
	<rect fill="#00005B" x="0" y="0" width="256" height="249.6" rx="42.5"/>
	<path d="M103.513 149.333h-39.67l-8.148 25.033a2.02 2.02 0 0 1-1.9 1.546H33.542c-1.146 0-1.547-.63-1.202-1.89l34.49-98.42.457-1.353c.191-.573.382-1.182.573-1.914.45-2.291.68-4.62.687-6.955a1.063 1.063 0 0 1 1.202-1.202h27.305c.8 0 1.258.286 1.374.859l38.84 109.157c.344 1.145 0 1.718-1.03 1.717h-22.325a1.587 1.587 0 0 1-1.718-1.202l-8.682-25.376Zm-33.42-21.181h27.133l-.386-1.277-.622-2.022-.908-2.896-1.745-5.467-4.754-15.043a334.434 334.434 0 0 1-2.46-8.138l-.878-3.096-.72-2.567-.885-3.21-.209-.763h-.171a138.781 138.781 0 0 1-3.137 12.23l-1.16 3.723-2.79 9-1.797 5.82-.763 2.427-.758 2.37-.754 2.313a374.417 374.417 0 0 1-2.237 6.596Zm79.197 46.125v-63.299c0-.432 0-.876-.004-1.33l-.012-1.4-.021-1.467-.048-2.328-.057-2.033a255.4 255.4 0 0 0-.11-2.944l-.09-1.893-.13-2.348-.108-1.72-.064-.878-.042-.508a1.022 1.022 0 0 1 .171-1.03 1.401 1.401 0 0 1 1.031-.343h17.143a3.84 3.84 0 0 1 1.718.343c.463.239.782.687.858 1.202l.773 2.319c.316 1.136.518 2.302.601 3.478a34.501 34.501 0 0 1 11.334-6.611 39.021 39.021 0 0 1 12.88-2.147 32.68 32.68 0 0 1 10.047 1.632 25.379 25.379 0 0 1 16.229 15.8c1.717 4.408 2.39 10.104 2.39 17.086v50.419c0 1.03-.458 1.545-1.374 1.545L202.34 176a1.517 1.517 0 0 1-1.718-1.717v-47.836a23.677 23.677 0 0 0-2.073-9.286 12.27 12.27 0 0 0-4.38-5.324 12.923 12.923 0 0 0-7.298-1.889c-2.76-.04-5.5.457-8.071 1.46a20.36 20.36 0 0 0-6.354 4.035v58.834c0 1.03-.458 1.545-1.374 1.545h-20.235a1.366 1.366 0 0 1-1.546-1.545Z" fill="#99F"/>
</svg>
